assets/curvepoints.xmp
<crs:ToneCurvePV2012><rdf:Seq><rdf:li>0, 24</rdf:li><rdf:li>25, 31</rdf:li><rdf:li>60, 55</rdf:li><rdf:li>113, 118</rdf:li><rdf:li>189, 190</rdf:li><rdf:li>255, 255</rdf:li></rdf:Seq></crs:ToneCurvePV2012>